assets/Eleven oclock/Flat/eleven_oclock_flat.svg

<svg width="32" height="32" viewBox="0 0 32 32" fill="none" xmlns="http://www.w3.org/2000/svg">
<path d="M28 16C28 22.6274 22.6274 28 16 28C9.37258 28 4 22.6274 4 16C4 9.37258 9.37258 4 16 4C22.6274 4 28 9.37258 28 16Z" fill="#E6E6E6"/>
<path d="M16 27C22.0751 27 27 22.0751 27 16C27 9.92487 22.0751 5 16 5C9.92487 5 5 9.92487 5 16C5 22.0751 9.92487 27 16 27ZM16 30C8.26801 30 2 23.732 2 16C2 8.26801 8.26801 2 16 2C23.732 2 30 8.26801 30 16C30 23.732 23.732 30 16 30Z" fill="#636363"/>
<path d="M16.0288 7.01587C16.5811 7.01587 17.0288 7.46358 17.0288 8.01587V16.0113C17.0288 16.5635 16.5811 17.0113 16.0288 17.0113C15.4765 17.0113 15.0288 16.5635 15.0288 16.0113V8.01587C15.0288 7.46358 15.4765 7.01587 16.0288 7.01587Z" fill="url(#paint0_linear_18_13765)"/>
<path d="M12.5164 9.96625C12.9947 9.69011 13.6063 9.85398 13.8824 10.3323L16.866 15.5C17.1422 15.9783 16.9783 16.5899 16.5 16.866C16.0217 17.1422 15.4101 16.9783 15.134 16.5L12.1504 11.3323C11.8742 10.854 12.0381 10.2424 12.5164 9.96625Z" fill="black"/>
<path d="M18.02 16.0112C18.02 17.1096 17.1296 18 16.0312 18C14.9328 18 14.0424 17.1096 14.0424 16.0112C14.0424 14.9128 14.9328 14.0223 16.0312 14.0223C17.1296 14.0223 18.02 14.9128 18.02 16.0112Z" fill="#9B9B9B"/>
<defs>
<linearGradient id="paint0_linear_18_13765" x1="16.0288" y1="7.01587" x2="16.0288" y2="17.0113" gradientUnits="userSpaceOnUse">
<stop stop-color="#D52C38"/>
<stop offset="1" stop-color="#DF1F81"/>
</linearGradient>
</defs>
</svg>

<svg xmlns="http://www.w3.org/2000/svg" width="32" height="32" fill="none"><path fill="#E6E6E6" d="M28 16c0 6.627-5.373 12-12 12S4 22.627 4 16 9.373 4 16 4s12 5.373 12 12Z"/><path fill="#636363" d="M16 27c6.075 0 11-4.925 11-11S22.075 5 16 5 5 9.925 5 16s4.925 11 11 11Zm0 3C8.268 30 2 23.732 2 16S8.268 2 16 2s14 6.268 14 14-6.268 14-14 14Z"/><path fill="url(#a)" d="M16.029 7.016a1 1 0 0 1 1 1v7.995a1 1 0 0 1-2 0V8.016a1 1 0 0 1 1-1Z"/><path fill="#000" d="M12.516 9.966a1 1 0 0 1 1.366.366l2.984 5.168a1 1 0 1 1-1.732 1l-2.984-5.168a1 1 0 0 1 .366-1.366Z"/><path fill="#9B9B9B" d="M18.02 16.011a1.989 1.989 0 1 1-3.978 0 1.989 1.989 0 0 1 3.978 0Z"/><defs><linearGradient id="a" x1="16.029" x2="16.029" y1="7.016" y2="17.011" gradientUnits="userSpaceOnUse"><stop stop-color="#D52C38"/><stop offset="1" stop-color="#DF1F81"/></linearGradient></defs></svg>
